X:1
T:Garabandal, 87.87 D
T:Garabandal, 87.87 D
T:A. A. G., 1869
T:Public Domain Courtesy of the Cyber Hymnal™
C:A. A. G., 1869
Z:Public Domain
Z:Courtesy of the Cyber Hymnal™
%%score ( 1 2 ) ( 3 4 )
L:1/8
Q:1/4=107
M:4/4
K:Ab
V:1 treble 
V:2 treble 
V:3 bass 
V:4 bass 
V:1
 [Ee]2 [Ee]2 (ed) ([Ec][DB]) | [CA]2 [CA]2 ([CA][EG]) ([DF][CE]) | [Ec]2 [Fc]2 (cB) (AB) | %3
 [FA]2 [=EG]2 F4 | [Ee]2 [Ee]2 (ed) ([Ec][DB]) | [CA]2 [CA]2 ([CA][EG]) ([DF][CE]) | %6
 [Ec]2 [A=d]2 (eB) ([Ac][FA]) | [EG]2 [=DF]2 E4 | E2 E2 [EA]2 [EB]2 | %9
 ([Ec][DB]) ([CA][Ec]) [EB]2 E2 | E2 E2 [EA]2 [EB]2 | (cd) (ec) [EB]4 | %12
 [Ee]2 [Ee]2 (ed) ([Ec][DB]) | [CA]2 [CA]2 ([CA][EG]) ([DF][CE]) | E2 E2 (EF) (GA) | %15
 [FB]2 [Fc]2 [EA]4 |] %16
V:2
 x4 E2 x2 | x8 | x4 G2 F2 | x4 F4 | x4 E2 x2 | x8 | x4 G2 x2 | x4 E4 | E2 E2 x4 | x6 E2 | %10
 E2 E2 x4 | E2 E2 x4 | x4 E2 x2 | x8 | E2 E2 E2 E2 | x8 |] %16
V:3
 [A,C]2 [A,C]2 (CB,) A,2 | [A,,A,]2 [A,,A,]2 [A,,A,]2 [A,,A,]2 | %2
 A,2 [F,A,]2 [=E,C]2 ([F,C][B,,D]) | [C,C]2 [C,B,]2 [F,A,]4 | [A,C]2 [A,C]2 (CB,) A,2 | %5
 [A,,A,]2 [A,,A,]2 [A,,A,]2 [A,,A,]2 | A,2 [F,B,]2 (B,E) (EC) | B,2 [B,,A,]2 [E,G,]4 | %8
 [E,G,]2 [E,G,]2 [C,A,]2 [E,G,]2 | A,2 A,2 [E,G,]2 [E,G,]2 | [E,G,]2 [D,G,]2 [C,A,]2 [E,G,]2 | %11
 (A,B,) (CA,) [E,G,]4 | [A,C]2 [A,C]2 (CB,) A,2 | [A,,A,]2 [A,,A,]2 [A,,A,]2 [A,,A,]2 | %14
 [E,G,]2 [E,G,]2 (G,A,) (B,C) | [E,D]2 [E,E]2 [A,,C]4 |] %16
V:4
 x4 A,2 A,2 | x8 | A,2 x6 | x8 | x4 A,2 A,2 | x8 | A,2 E,2 A,2 x2 | B,2 x6 | x8 | A,2 A,2 x4 | x8 | %11
 A,2 A,2 x4 | x4 A,2 A,2 | x8 | x4 E,2 E,2 | x8 |] %16

